X:217
T: Gottselige Strickerin (3-20), S. 69
N: P0992
O: Lothringen
S: PINCK, Louis: Verklingende Weisen, Bd3, Metz 1933]
R: Trauer, Abschied, Liebe]
M: 3/8
L: 1/32
K: F
F4 | F4F4F4 | F4F4F4 | G4G4A4 | B8B4 | F8
F4 | B4B4c4 | d4d4d2c2 | B4G4A4 | B12 | z8
B4 | Bc3B4c4 | d4d4c4 | B12 | G12 |
c8d4 | B6A2F4 | G4A4A3F | F12 | z8
F4 | B4B4c4 | d4d4c4 | B12 | G12 |
c8d4 | B6A2F4 | G4A4AF3 | G12

@@@ Tune index: 7767
